src/images/app-icons/dark-theme/048.svg

<svg xmlns="http://www.w3.org/2000/svg" viewBox="0 0 32 32"><defs><linearGradient id="048_svg__a" x1="-81.793" y1="727.835" x2="-76.793" y2="727.835" gradientTransform="matrix(1.414 0 0 .942 120.469 -676.91)" gradientUnits="userSpaceOnUse"><stop offset=".231" stop-opacity="0"/><stop offset=".834"/></linearGradient><linearGradient id="048_svg__c" x1="-498" y1="32" x2="-530" gradientTransform="matrix(1 0 0 -1 530 32)" gradientUnits="userSpaceOnUse"><stop offset=".1" stop-color="#be95ff"/><stop offset=".9" stop-color="#4589ff"/></linearGradient><mask id="048_svg__b" x="0" y="0" width="32" height="32" maskUnits="userSpaceOnUse"><path d="M11.707 10.293L7.7 6.285A2.951 2.951 0 008 5a3 3 0 10-3 3 2.965 2.965 0 001.285-.3l4.008 4.008zM4 5a1 1 0 111 1 1 1 0 01-1-1z" fill="#fff"/><path transform="rotate(45 8.332 8.668)" fill="url(#048_svg__a)" d="M4.797 6.784h7.071v3.768H4.797z"/><path d="M27 24a2.965 2.965 0 00-1.285.3l-2.743-2.743a12.828 12.828 0 003.94-5.17l.163-.387-.163-.388a12.828 12.828 0 00-3.94-5.17L25.715 7.7A2.965 2.965 0 0027 8a3 3 0 10-3-3 2.951 2.951 0 00.3 1.285l-3.045 3.046A11.185 11.185 0 0016 8a12.016 12.016 0 00-10.912 7.612L4.925 16l.163.388a12.828 12.828 0 003.94 5.17L6.285 24.3A2.965 2.965 0 005 24a3 3 0 103 3 2.951 2.951 0 00-.3-1.285l3.046-3.046a11.039 11.039 0 0010.51 0l3.044 3.046A2.951 2.951 0 0024 27a3 3 0 103-3zm0-20a1 1 0 11-1 1 1 1 0 011-1zM5 28a1 1 0 111-1 1 1 0 01-1 1zm2.1-12a9.972 9.972 0 018.9-6 9.972 9.972 0 018.9 6 9.972 9.972 0 01-8.9 6 9.972 9.972 0 01-8.9-6zM27 28a1 1 0 111-1 1 1 0 01-1 1z" fill="#fff"/></mask></defs><g data-name="Layer 2"><g data-name="Dark theme icons"><g mask="url(#048_svg__b)"><path transform="rotate(180 16 16)" fill="url(#048_svg__c)" d="M0 0h32v32H0z"/></g><path d="M16 20a4 4 0 114-4 4 4 0 01-4 4zm0-6a2 2 0 102 2 2 2 0 00-2-2z" fill="#f4f4f4"/></g></g></svg>

<svg xmlns="http://www.w3.org/2000/svg" xmlns:xlink="http://www.w3.org/1999/xlink" viewBox="0 0 32 32"><defs><style>.cls-1{fill:#fff;}.cls-2{fill:url(#linear-gradient);}.cls-3{mask:url(#mask);}.cls-4{fill:url(#linear-gradient-2);}.cls-5{fill:#f4f4f4;}</style><linearGradient id="linear-gradient" x1="-81.793" y1="727.835" x2="-76.793" y2="727.835" gradientTransform="translate(120.469 -676.91) scale(1.414 0.942)" gradientUnits="userSpaceOnUse"><stop offset="0.231" stop-opacity="0"/><stop offset="0.834"/></linearGradient><mask id="mask" x="0" y="0" width="32" height="32" maskUnits="userSpaceOnUse"><path class="cls-1" d="M11.707,10.293,7.7,6.285A2.951,2.951,0,0,0,8,5,3,3,0,1,0,5,8a2.965,2.965,0,0,0,1.285-.3l4.008,4.008ZM4,5A1,1,0,1,1,5,6,1,1,0,0,1,4,5Z"/><rect class="cls-2" x="4.797" y="6.784" width="7.071" height="3.768" transform="translate(8.57 -3.353) rotate(45)"/><path class="cls-1" d="M27,24a2.965,2.965,0,0,0-1.285.3l-2.743-2.743a12.828,12.828,0,0,0,3.94-5.17L27.075,16l-.163-.388a12.828,12.828,0,0,0-3.94-5.17L25.715,7.7A2.965,2.965,0,0,0,27,8a3,3,0,1,0-3-3,2.951,2.951,0,0,0,.3,1.285L21.255,9.331A11.185,11.185,0,0,0,16,8,12.016,12.016,0,0,0,5.088,15.612L4.925,16l.163.388a12.828,12.828,0,0,0,3.94,5.17L6.285,24.3A2.965,2.965,0,0,0,5,24a3,3,0,1,0,3,3,2.951,2.951,0,0,0-.3-1.285l3.046-3.046a11.039,11.039,0,0,0,10.51,0L24.3,25.715A2.951,2.951,0,0,0,24,27a3,3,0,1,0,3-3ZM27,4a1,1,0,1,1-1,1A1,1,0,0,1,27,4ZM5,28a1,1,0,1,1,1-1A1,1,0,0,1,5,28ZM7.1,16A9.972,9.972,0,0,1,16,10a9.972,9.972,0,0,1,8.9,6A9.972,9.972,0,0,1,16,22,9.972,9.972,0,0,1,7.1,16ZM27,28a1,1,0,1,1,1-1A1,1,0,0,1,27,28Z"/></mask><linearGradient id="linear-gradient-2" x1="-498" y1="32" x2="-530" gradientTransform="matrix(1, 0, 0, -1, 530, 32)" gradientUnits="userSpaceOnUse"><stop offset="0.1" stop-color="#be95ff"/><stop offset="0.9" stop-color="#4589ff"/></linearGradient></defs><g id="Layer_2" data-name="Layer 2"><g id="Dark_theme_icons" data-name="Dark theme icons"><g class="cls-3"><rect class="cls-4" width="32" height="32" transform="translate(32 32) rotate(180)"/></g><path class="cls-5" d="M16,20a4,4,0,1,1,4-4A4,4,0,0,1,16,20Zm0-6a2,2,0,1,0,2,2A2,2,0,0,0,16,14Z"/></g></g></svg>
